Project/img/SEARCH.svg

<svg xmlns="http://www.w3.org/2000/svg" xmlns:xlink="http://www.w3.org/1999/xlink" preserveAspectRatio="xMidYMid" width="17.62" height="17.625" viewBox="0 0 17.62 17.625">
  <defs>
    <style>
      .cls-1 {
        fill: #fff;
        fill-rule: evenodd;
      }
    </style>
  </defs>
  <path d="M17.127,14.795 C17.425,15.094 17.610,15.506 17.610,15.962 C17.610,16.874 16.871,17.612 15.960,17.612 C15.504,17.612 15.092,17.427 14.793,17.129 L14.793,17.129 L9.957,12.293 C8.975,12.874 7.833,13.212 6.610,13.212 C2.965,13.212 0.010,10.258 0.010,6.612 C0.010,2.967 2.965,0.012 6.610,0.012 C10.255,0.012 13.210,2.967 13.210,6.612 C13.210,7.836 12.871,8.977 12.291,9.960 L17.127,14.795 L17.127,14.795 ZM6.610,1.662 C3.876,1.662 1.660,3.878 1.660,6.612 C1.660,9.346 3.876,11.562 6.610,11.562 C9.344,11.562 11.560,9.346 11.560,6.612 C11.560,3.878 9.344,1.662 6.610,1.662 Z" class="cls-1"/>
</svg>

<svg xmlns="http://www.w3.org/2000/svg" width="17.62" height="17.625" preserveAspectRatio="xMidYMid"><defs><style>.cls-1 { fill: #fff; fill-rule: evenodd; }</style></defs><path d="M17.13 14.8c.3.3.48.7.48 1.16 0 .9-.73 1.65-1.64 1.65-.46 0-.87-.17-1.17-.47L9.95 12.3c-1 .57-2.13.9-3.35.9-3.63 0-6.6-2.94-6.6-6.6C0 2.98 2.97 0 6.6 0c3.66 0 6.6 2.97 6.6 6.6 0 1.24-.33 2.38-.9 3.36l4.83 4.83zM6.6 1.65c-2.72 0-4.94 2.22-4.94 4.95 0 2.75 2.22 4.96 4.95 4.96 2.74 0 4.96-2.2 4.96-4.95 0-2.72-2.22-4.94-4.95-4.94z" class="cls-1"/></svg>
